logo.svg

<svg xmlns="http://www.w3.org/2000/svg" width="90" height="66.75" viewBox="0 0 90 66.75">
  <g id="Web" transform="translate(0 -0.475)">
    <g id="Sign-In" transform="translate(-676 -354)">
      <g id="Group-6" transform="translate(563 354)">
        <g id="Group-5">
          <g id="logo" transform="translate(113)">
            <path id="Path" d="M41.75,10.475c0-4.5-2-10-11.25-10A12.714,12.714,0,0,0,22,3.225a18.952,18.952,0,0,1-12.25,4A25.191,25.191,0,0,1,0,5.475c2.75,6.75,9.5,15.25,26.75,15.25C35.75,20.475,41.75,15.225,41.75,10.475Z" fill="#7159c1"/>
            <path id="Path-2" data-name="Path" d="M61.75,47.225c-8.75,0-14-2.75-16.75-5-2.75,2.25-8,5-16.75,5-13.75,0-18.5-18.25-19.75-23.75-1-.5-1.75-.75-2.75-1.25L7,33.725c2.25,19.5,26.25,32.5,38,33.5,11-1.25,35-14,37.5-33.5l1.25-11.75a27.269,27.269,0,0,1-2.75,1.5C80.25,29.225,75.5,47.225,61.75,47.225Z" fill="#7159c1"/>
            <path id="Path-3" data-name="Path" d="M68.25,3.225a13.227,13.227,0,0,0-8.5-2.75c-9.25,0-11.25,5.5-11.25,10,0,4.75,6,10,14.75,10,17.25,0,24-8.5,26.75-15.25a24.77,24.77,0,0,1-9.5,1.75A17.725,17.725,0,0,1,68.25,3.225Z" fill="#7159c1"/>
          </g>
        </g>
      </g>
    </g>
  </g>
</svg>

<?xml version="1.0" encoding="UTF-8"?>
<svg width="90px" height="68px" viewBox="0 0 90 68" version="1.1" xmlns="http://www.w3.org/2000/svg" xmlns:xlink="http://www.w3.org/1999/xlink">
    <!-- Generator: Sketch 55 (78076) - https://sketchapp.com -->
    <title>logo</title>
    <desc>Created with Sketch.</desc>
    <g id="Web" stroke="none" stroke-width="1" fill="none" fill-rule="evenodd">
        <g id="Sign-In" transform="translate(-676.000000, -354.000000)" fill="#FFFFFF" fill-rule="nonzero">
            <g id="Group-6" transform="translate(563.000000, 354.000000)">
                <g id="Group-5">
                    <g id="logo" transform="translate(113.000000, 0.000000)">
                        <path d="M41.75,10.475 C41.75,5.975 39.75,0.475 30.5,0.475 C26,0.475 24.25,1.725 22,3.225 C19.5,4.975 16.25,7.225 9.75,7.225 C5.5,7.225 2.5,6.475 0,5.475 C2.75,12.225 9.5,20.725 26.75,20.725 C35.75,20.475 41.75,15.225 41.75,10.475 Z" id="Path"></path>
                        <path d="M61.75,47.225 C53,47.225 47.75,44.475 45,42.225 C42.25,44.475 37,47.225 28.25,47.225 C14.5,47.225 9.75,28.975 8.5,23.475 C7.5,22.975 6.75,22.725 5.75,22.225 L7,33.725 C9.25,53.225 33.25,66.225 45,67.225 C56,65.975 80,53.225 82.5,33.725 L83.75,21.975 C83,22.475 82,22.975 81,23.475 C80.25,29.225 75.5,47.225 61.75,47.225 Z" id="Path"></path>
                        <path d="M68.25,3.225 C66,1.725 64,0.475 59.75,0.475 C50.5,0.475 48.5,5.975 48.5,10.475 C48.5,15.225 54.5,20.475 63.25,20.475 C80.5,20.475 87.25,11.975 90,5.225 C87.5,6.225 84.5,6.975 80.5,6.975 C74,7.225 70.75,4.975 68.25,3.225 Z" id="Path"></path>
                    </g>
                </g>
            </g>
        </g>
    </g>
</svg>
